svg/alphanum/question-square.svg

<svg width="448" height="512" viewBox="0 0 448 512" version="1.1" xmlns="http://www.w3.org/2000/svg"><path fill="currentColor" d="M400,480l-352,0c-26.51,0 -48,-21.49 -48,-48l0,-352c0,-26.509 21.49,-48 48,-48l352,0c26.51,0 48,21.491 48,48l0,352c0,26.509 -21.488,47.998 -48,48Zm-129,-96c0,-25.405 -20.595,-46 -46,-46c-25.405,0 -46,20.595 -46,46c0,25.405 20.595,46 46,46c25.405,0 46,-20.595 46,-46Zm-102.5,-190c18.5,-23.5 30.5,-35.5 57.5,-35.5c20.5,0 46,12.5 46,33c0,14.532 -11.078,20.996 -28.859,31.371c-1.184,0.691 -2.398,1.4 -3.641,2.129c-0.264,0.155 -0.529,0.31 -0.795,0.466c-22.923,13.45 -53.705,31.51 -53.705,72.534c0,9.2 5,14 11.5,14l56,0c7.5,0 12,-4.9 12,-12.5c0,-11.278 12.132,-18.391 27.12,-27.178c24.213,-14.196 55.88,-32.761 55.88,-80.322c0,-59 -59.5,-102 -116.5,-102c-54,0 -89.5,22.5 -116,64.5c0,0 -7.5,8.311 1.5,15l37,27.5c8.5,6.318 15,-3 15,-3Z"></path></svg>

<svg width="448" height="512" viewBox="0 0 448 512" fill="none" xmlns="http://www.w3.org/2000/svg">
<path fill-rule="evenodd" clip-rule="evenodd" d="M0 80C0 53.4903 21.4903 32 48 32H400C426.51 32 448 53.4903 448 80V432C448 458.51 426.51 480 400 480H48C21.4903 480 0 458.51 0 432V80ZM271 384C271 409.405 250.405 430 225 430C199.595 430 179 409.405 179 384C179 358.595 199.595 338 225 338C250.405 338 271 358.595 271 384ZM168.5 194C187 170.5 199 158.5 226 158.5C246.5 158.5 272 171 272 191.5C272 206.032 260.922 212.496 243.141 222.871C241.957 223.562 240.743 224.271 239.5 225C239.236 225.155 238.971 225.31 238.705 225.466C215.782 238.916 185 256.976 185 298C185 307.2 190 312 196.5 312H252.5C260 312 264.5 307.1 264.5 299.5C264.5 288.222 276.632 281.109 291.62 272.322C315.833 258.126 347.5 239.561 347.5 192C347.5 133 288 90 231 90C177 90 141.5 112.5 115 154.5C115 154.5 107.5 162.811 116.5 169.5L153.5 197C162 203.318 168.5 194 168.5 194Z" fill="black"/>
</svg>
